img/block-4.svg

<svg width="655" height="200" viewBox="0 0 655 200" fill="none" xmlns="http://www.w3.org/2000/svg">
<path d="M642.971 161.7L642.968 25.1118C642.968 13.8005 633.598 4.78007 622.295 5.21067L33.0525 27.6592C23.1773 28.0355 15.026 35.568 13.8677 45.3877L5.08522 119.846C3.74737 131.189 12.1513 141.308 23.5361 142.064L621.564 181.745C633.135 182.512 642.971 173.302 642.971 161.7Z" fill="#FF8D07"/>
<path d="M651.063 157.227L651.064 20.6889C651.064 9.37749 641.694 0.356981 630.391 0.787584L40.7689 23.2506C30.8945 23.6268 22.7435 31.1581 21.5841 40.9768L12.7957 115.402C11.4561 126.746 19.8612 136.867 31.2476 137.621L629.657 177.272C641.227 178.039 651.063 168.828 651.063 157.227Z" stroke="black"/>
</svg>

<svg width="655" height="200" viewBox="0 0 655 200" fill="none" xmlns="http://www.w3.org/2000/svg"><path d="M642.971 161.7l-.003-136.588c0-11.311-9.37-20.332-20.673-19.901L33.053 27.659c-9.876.377-18.027 7.909-19.185 17.729l-8.783 74.458c-1.338 11.343 7.066 21.462 18.451 22.218l598.028 39.681c11.571.767 21.407-8.443 21.407-20.045z" fill="#FF8D07"/><path d="M651.063 157.227l.001-136.538c0-11.312-9.37-20.332-20.673-19.901L40.769 23.25c-9.874.376-18.025 7.907-19.185 17.726l-8.788 74.425c-1.34 11.344 7.065 21.465 18.452 22.219l598.409 39.651c11.57.767 21.406-8.444 21.406-20.045z" stroke="#000"/></svg>
